src/assets/icons/tickets.svg

<svg xmlns="http://www.w3.org/2000/svg" width="32" height="32" viewBox="0 0 32 32">
  <g fill="none" fill-rule="evenodd">
    <g fill="#000" fill-rule="nonzero">
      <path d="M28.322,1.863 C28.0238098,3.06462415 26.8359524,3.82151692 25.6208495,3.58415045 C24.4057465,3.34678399 23.5900583,2.19850501 23.766,0.973 L21.909,0.61 C21.6723473,1.55306037 20.8751906,2.2501739 19.909,2.359 L19.909,0 L15.909,0 C15.8425664,1.31969221 14.7553567,2.35682434 13.434,2.361 C12.1153519,2.35311892 11.0322813,1.31700481 10.966,0 L8.947,0 C8.88056637,1.31969221 7.7933567,2.35682434 6.472,2.361 C5.15180393,2.35523452 4.06636958,1.31853934 4,0 L0,0 L0,31.969 L3.995,31.969 C4.04842946,30.6396903 5.14161697,29.589559 6.472,29.589559 C7.80238303,29.589559 8.89557054,30.6396903 8.949,31.969 L10.965,31.969 C11.0184295,30.6396903 12.111617,29.589559 13.442,29.589559 C14.772383,29.589559 15.8655705,30.6396903 15.919,31.969 L19.914,31.969 L19.914,28.642 C20.6510254,28.5141487 21.4045919,28.7482464 21.93944,29.2712091 C22.4742882,29.7941717 22.7252587,30.5422879 22.614,31.282 L26.29,32 L32,2.581 L28.322,1.863 Z M17.922,29.971 L17.388,29.971 C16.6850529,28.6410253 15.3592736,27.7547818 13.8615876,27.6136999 C12.3639016,27.4726179 10.8959447,28.0956914 9.957,29.271 C9.01805528,28.0956914 7.55009837,27.4726179 6.05241238,27.6136999 C4.55472639,27.7547818 3.2289471,28.6410253 2.526,29.971 L1.991,29.971 L1.991,2 L2.537,2 C3.31414748,3.45099364 4.82599333,4.35733274 6.472,4.359 C7.82902968,4.35855935 9.11190188,3.73976217 9.957,2.678 C10.8020981,3.73976217 12.0849703,4.35855935 13.442,4.359 C15.0876477,4.35696464 16.5990222,3.45067781 17.376,2 L17.922,2 L17.922,29.971 L17.922,29.971 Z M24.716,29.657 L24.416,29.599 C23.8022124,27.6721607 21.9230528,26.4382974 19.911,26.641 L19.911,13.166 C20.060913,13.218215 20.2182677,13.245904 20.377,13.248 C21.2054271,13.248 21.877,12.5764271 21.877,11.748 C21.877,10.9195729 21.2054271,10.248 20.377,10.248 C20.2182677,10.250096 20.060913,10.277785 19.911,10.33 L19.911,4.356 C20.7883244,4.30790303 21.6296565,3.99126888 22.321,3.449 C23.0144216,4.67581754 24.264969,5.48500234 25.6681986,5.61485344 C27.0714283,5.74470455 28.4492283,5.17873995 29.356,4.1 L29.663,4.16 L24.716,29.657 Z"/>
      <ellipse cx="4.978" cy="11.489" rx="1.494" ry="1.499"/>
      <ellipse cx="9.957" cy="11.489" rx="1.494" ry="1.499"/>
      <ellipse cx="14.935" cy="11.489" rx="1.494" ry="1.499"/>
      <ellipse cx="25.024" cy="12.661" rx="1.494" ry="1.499"/>
    </g>
  </g>
</svg>

<svg xmlns="http://www.w3.org/2000/svg" width="32" height="32" viewBox="0 0 32 32"><g id="tickets"><path d="M28.32,1.86A2.32,2.32,0,0,1,23.77,1L21.91.61a2.34,2.34,0,0,1-2,1.75V0h-4a2.48,2.48,0,0,1-2.48,2.36A2.48,2.48,0,0,1,11,0H9A2.49,2.49,0,0,1,6.47,2.36,2.48,2.48,0,0,1,4,0H0V32H4a2.48,2.48,0,0,1,5,0h2a2.48,2.48,0,0,1,4.95,0h4V28.64a2.34,2.34,0,0,1,2,.63,2.31,2.31,0,0,1,.67,2l3.68.72L32,2.58ZM17.92,30h-.53a4.46,4.46,0,0,0-7.43-.7,4.49,4.49,0,0,0-3.91-1.66A4.44,4.44,0,0,0,2.53,30H2V2h.55A4.46,4.46,0,0,0,6.47,4.36,4.47,4.47,0,0,0,10,2.68a4.44,4.44,0,0,0,3.48,1.68A4.48,4.48,0,0,0,17.38,2h.54V30Zm6.8-.31-.3-.06a4.29,4.29,0,0,0-4.51-3V13.17a1.5,1.5,0,1,0,0-2.84v-6a4.31,4.31,0,0,0,2.41-.91,4.27,4.27,0,0,0,3.35,2.16A4.3,4.3,0,0,0,29.36,4.1l.3.06Z"/><ellipse cx="4.98" cy="11.49" rx="1.49" ry="1.5"/><ellipse cx="9.96" cy="11.49" rx="1.49" ry="1.5"/><ellipse cx="14.94" cy="11.49" rx="1.49" ry="1.5"/><ellipse cx="25.02" cy="12.66" rx="1.49" ry="1.5"/></g></svg>
